packages/icons/src/clock-dashed.svg

<svg width="24" height="24" viewBox="0 0 24 24" fill="none" xmlns="http://www.w3.org/2000/svg">
<path fill-rule="evenodd" clip-rule="evenodd" d="M10.313 19.822C10.753 19.916 11.203 19.974 11.659 19.992L12.084 20L12.104 22H12.002C11.287 22 10.582 21.925 9.89195 21.777L10.312 19.822H10.313ZM15.533 19.18L16.418 20.974C15.751 21.3028 15.0493 21.5557 14.326 21.728L13.863 19.783C14.442 19.644 15.002 19.443 15.533 19.18ZM7.09395 18.319C7.5632 18.684 8.07167 18.9956 8.60995 19.248L7.75995 21.058C7.08751 20.7429 6.45226 20.3538 5.86595 19.898L7.09395 18.318V18.319ZM12.001 2C12.133 2 12.264 2.003 12.395 2.008L12.001 2C12.168 2 12.335 2.004 12.501 2.012L12.687 2.023L12.932 2.043L13.118 2.062L13.352 2.091L13.554 2.12L13.798 2.161L13.996 2.199L14.209 2.245C14.8929 2.39881 15.5586 2.62474 16.195 2.919L16.345 2.991C16.606 3.116 16.86 3.253 17.107 3.401L17.513 3.655L17.679 3.767L17.899 3.924L18.218 4.167C18.688 4.541 19.125 4.957 19.521 5.409L19.836 5.786C19.91 5.879 19.983 5.974 20.054 6.07L19.811 5.754C20.1704 6.20271 20.4905 6.68147 20.768 7.185L20.814 7.271C21.199 7.986 21.498 8.752 21.701 9.558L21.741 9.728C21.771 9.855 21.798 9.983 21.823 10.111L21.737 9.707C21.775 9.871 21.809 10.035 21.839 10.201L21.902 10.588L21.958 11.071L21.972 11.235L21.989 11.504C22.0253 12.2501 21.979 12.998 21.851 13.734L21.768 14.154C21.728 14.335 21.684 14.514 21.634 14.692L21.52 15.072L21.39 15.449L21.208 15.909C20.8587 16.7312 20.4006 17.5028 19.846 18.203L19.875 18.166C19.777 18.29 19.676 18.412 19.573 18.532L19.451 18.672L19.278 18.859C19.154 18.991 19.026 19.119 18.895 19.244L18.522 19.581L18.275 19.787L17.02 18.23L17.384 17.918L17.54 17.773C18.1957 17.1431 18.7401 16.4067 19.15 15.595L19.242 15.407L19.357 15.15L19.477 14.853L19.611 14.475L19.654 14.337L19.708 14.155C19.748 14.013 19.783 13.87 19.815 13.725L19.871 13.445C19.935 13.091 19.976 12.731 19.993 12.366L20.001 11.93L19.991 11.581L19.958 11.165L19.938 10.992L19.915 10.821L19.885 10.631L19.85 10.444C19.7145 9.75732 19.4889 9.09155 19.179 8.464L19.039 8.192L19.016 8.151C18.8359 7.823 18.6327 7.5082 18.408 7.209L18.202 6.945C17.827 6.485 17.402 6.068 16.935 5.702L16.704 5.528L16.426 5.334L16.131 5.147L15.751 4.931L15.657 4.882L15.751 4.932C15.1085 4.59007 14.422 4.33805 13.711 4.183L13.4 4.122L13.154 4.082L12.851 4.045L12.691 4.029L12.504 4.016L12.314 4.006L12.001 4C11.195 4 10.408 4.12 9.66095 4.347L9.38995 4.436L9.11995 4.534L8.82095 4.657C8.0033 5.01068 7.25084 5.49913 6.59495 6.102L6.42795 6.261L6.21795 6.471C6.01729 6.68175 5.82802 6.90307 5.65095 7.134L4.06395 5.916C4.27191 5.64522 4.49353 5.38522 4.72795 5.137L4.99795 4.862L5.28595 4.589L5.60695 4.311C6.0676 3.92726 6.56194 3.58588 7.08395 3.291L7.47795 3.079L7.55695 3.039C7.64395 2.996 7.73195 2.954 7.82095 2.913L7.47795 3.079C7.61795 3.009 7.75795 2.941 7.89895 2.877L8.35895 2.684L8.76095 2.537L8.92695 2.482L9.15995 2.41L9.31995 2.364L9.56095 2.3C10.138 2.156 10.731 2.062 11.335 2.022L11.791 2.002L12.001 2ZM4.83895 15.568C5.10454 16.1 5.42854 16.6007 5.80495 17.061L4.25695 18.327C3.78632 17.7521 3.38116 17.1266 3.04895 16.462L4.83895 15.568ZM4.00095 12.152C4.01295 12.752 4.08995 13.342 4.23095 13.916L2.28795 14.393C2.11118 13.6716 2.01525 12.9327 2.00195 12.19L4.00195 12.152H4.00095ZM13.001 8V12H16.001V14H11.001V8H13.001ZM2.90795 7.832L4.72595 8.667C4.47805 9.20675 4.29155 9.77263 4.16995 10.354L2.21295 9.944C2.36495 9.214 2.59895 8.507 2.90795 7.832Z" fill="black"/>
</svg>

<svg xmlns="http://www.w3.org/2000/svg" width="24" height="24" fill="none" viewBox="0 0 24 24">
  <path fill="#000" fill-rule="evenodd" d="M10.313 19.822c.44.094.89.152 1.346.17l.425.008.02 2h-.102c-.715 0-1.42-.075-2.11-.223l.42-1.955h.001Zm5.22-.642.885 1.794a9.942 9.942 0 0 1-2.092.754l-.463-1.945a7.93 7.93 0 0 0 1.67-.603Zm-8.439-.861c.47.365.978.677 1.516.929l-.85 1.81a9.998 9.998 0 0 1-1.894-1.16l1.228-1.58v.001ZM12.001 2c.132 0 .263.003.394.008L12.001 2c.167 0 .334.004.5.012l.186.011.245.02.186.019.234.029.202.029.244.041.198.038.213.046c.684.154 1.35.38 1.986.674l.15.072c.261.125.515.262.762.41l.406.254.166.112.22.157.319.243c.47.374.907.79 1.303 1.242l.315.377c.074.093.147.188.218.284l-.243-.316c.36.449.68.927.957 1.431l.046.086c.385.715.684 1.481.887 2.287l.04.17c.03.127.057.255.082.383l-.086-.404c.038.164.072.328.102.494l.063.387.056.483.014.164.017.269a10.14 10.14 0 0 1-.138 2.23l-.083.42c-.04.181-.084.36-.134.538l-.114.38-.13.377-.182.46a9.98 9.98 0 0 1-1.362 2.294l.029-.037c-.098.124-.199.246-.302.366l-.122.14-.173.187c-.124.132-.252.26-.383.385l-.373.337-.247.206-1.255-1.557.364-.312.156-.145a8.056 8.056 0 0 0 1.61-2.178l.092-.188.115-.257.12-.297.134-.378.043-.138.054-.182c.04-.142.075-.285.107-.43l.056-.28c.064-.354.105-.714.122-1.079l.008-.436-.01-.349-.033-.416-.02-.173-.023-.171-.03-.19-.035-.187a7.946 7.946 0 0 0-.671-1.98l-.14-.272-.023-.041a7.902 7.902 0 0 0-.608-.942l-.206-.264c-.375-.46-.8-.877-1.267-1.243l-.231-.174-.278-.194-.295-.187-.38-.216-.094-.049.094.05a7.946 7.946 0 0 0-2.04-.749l-.311-.061-.246-.04-.303-.037-.16-.016-.187-.013-.19-.01L12.001 4c-.806 0-1.593.12-2.34.347l-.271.089-.27.098-.299.123a7.958 7.958 0 0 0-2.226 1.445l-.167.159-.21.21c-.2.21-.39.432-.567.663L4.064 5.916c.208-.27.43-.53.664-.779l.27-.275.288-.273.321-.278c.46-.384.955-.725 1.477-1.02l.394-.212.079-.04c.087-.043.175-.085.264-.126l-.343.166c.14-.07.28-.138.421-.202l.46-.193.402-.147.166-.055.233-.072.16-.046.24-.064a10.097 10.097 0 0 1 1.775-.278l.456-.02.21-.002ZM4.839 15.568a8.01 8.01 0 0 0 .966 1.493l-1.548 1.266a10.01 10.01 0 0 1-1.208-1.865l1.79-.894ZM4 12.152c.012.6.089 1.19.23 1.764l-1.943.477a10.01 10.01 0 0 1-.286-2.203l2-.038H4ZM13 8v4h3v2h-5V8h2ZM2.908 7.832l1.818.835a7.934 7.934 0 0 0-.556 1.687l-1.957-.41c.152-.73.386-1.437.695-2.112Z" clip-rule="evenodd"/>
</svg>
